Numix-Circle/48x48/apps/onboard-settings.svg

<svg width="48" xmlns="http://www.w3.org/2000/svg" viewBox="0 0 13.546667 13.546667" height="48" xmlns:xlink="http://www.w3.org/1999/xlink">
<defs>
<linearGradient id="linearGradient4460">
<stop offset="0" style="stop-color:#cecece"/>
<stop offset="1" style="stop-color:#eaeaea"/>
</linearGradient>
<linearGradient gradientTransform="matrix(1.10525 0 0 1.10525 -134.27874 -295.76183)" xlink:href="#linearGradient4460" id="linearGradient3006" y1="279.096" y2="268.33" gradientUnits="userSpaceOnUse" x2="0"/>
</defs>
<g style="fill-rule:evenodd">
<rect width="12.982" x=".282" y=".283" rx="6.491" height="12.982" style="opacity:.5;fill:#fff"/>
<rect width="11.853" x=".847" y=".847" rx="5.926" height="11.853" style="fill:url(#linearGradient3006)"/>
</g>
<g style="line-height:normal">
<path style="fill:#2d2d2d;color:#000" d="m 3.350951,3.3866663 c -0.134267,0.01459 -0.247225,0.143747 -0.246503,0.282179 l 0,5.016845 c 1.3e-5,0.147744 0.131092,0.282155 0.275167,0.282179 l 2.476498,0 0,0.5020169 1.834445,0 0,-0.5020169 2.4765,0 c 0.144071,-2.4e-5 0.275151,-0.134435 0.275164,-0.282179 l 0,-5.016845 c -1.3e-5,-0.147744 -0.131093,-0.282155 -0.275164,-0.282179 l -6.787443,0 z m 0.363002,0.439659 c 0.01144,-0.0024 0.02297,-0.0024 0.0344,0 l 6.072901,0 c 0.09605,2.29e-5 0.183436,0.08961 0.183445,0.1881169 l 0,4.325673 c -9e-6,0.0985 -0.0874,0.188096 -0.183445,0.18812 l -6.072901,0 c -0.09605,-2.4e-5 -0.183431,-0.08961 -0.183443,-0.18812 l 0,-4.325673 c -0.0016,-0.08779 0.06496,-0.171751 0.149047,-0.188117 z m 0.797245,5.873231 0,0.4604437 4.586113,0 0,-0.4604437 z"/>
<path style="fill:#d34836" d="M 14 18 L 14 19.40625 L 15.53125 19.40625 L 15.53125 18 L 14 18 z M 16.3125 18 L 16.3125 19.40625 L 16.6875 19.40625 C 16.779609 19.149148 16.963843 18.929071 17.1875 18.75 C 17.365361 18.607597 17.599732 18.524422 17.84375 18.4375 L 17.84375 18 L 16.3125 18 z M 20.9375 18 L 20.9375 18.59375 C 21.027457 18.641872 21.113391 18.690665 21.1875 18.75 C 21.41116 18.929072 21.595392 19.149148 21.6875 19.40625 L 22.46875 19.40625 L 22.46875 18 L 20.9375 18 z M 25.53125 18 L 25.53125 19.40625 L 26.3125 19.40625 C 26.404609 19.149148 26.588843 18.929071 26.8125 18.75 C 26.886609 18.690666 26.972543 18.641872 27.0625 18.59375 L 27.0625 18 L 25.53125 18 z M 30.15625 18 L 30.15625 18.4375 C 30.400268 18.524422 30.634639 18.607596 30.8125 18.75 C 31.146265 19.01723 31.375 19.381232 31.375 19.8125 C 31.375 20.182159 31.195699 20.497763 30.9375 20.75 L 30.9375 22.1875 L 32.46875 22.1875 L 32.46875 18 L 30.9375 18 L 30.15625 18 z M 33.21875 18 L 33.21875 19.40625 L 34 19.40625 L 34 18 L 33.21875 18 z M 14 20.8125 L 14 22.1875 L 16.3125 22.1875 L 16.3125 20.8125 L 14 20.8125 z M 17.0625 20.8125 L 17.0625 22.1875 L 18.15625 22.1875 L 18.15625 21.3125 C 17.80554 21.208755 17.441031 21.077989 17.1875 20.875 C 17.163659 20.855912 17.147724 20.832565 17.125 20.8125 L 17.0625 20.8125 z M 21.6875 20.8125 L 21.6875 22.1875 L 22.96875 22.1875 L 22.96875 20.8125 L 21.6875 20.8125 z M 25.03125 20.8125 L 25.03125 22.1875 L 25.53125 22.1875 L 25.53125 20.8125 L 25.03125 20.8125 z M 26.3125 20.8125 L 26.3125 22.1875 L 27.78125 22.1875 L 27.78125 21.3125 C 27.43054 21.208755 27.066031 21.077989 26.8125 20.875 C 26.78866 20.855912 26.772724 20.832565 26.75 20.8125 L 26.3125 20.8125 z M 33.21875 20.8125 L 33.21875 22.1875 L 34 22.1875 L 34 20.8125 L 33.21875 20.8125 z M 20.9375 21.03125 C 20.719708 21.147756 20.466944 21.239081 20.21875 21.3125 L 20.21875 22.1875 L 20.9375 22.1875 L 20.9375 21.03125 z M 30.15625 21.1875 C 30.052435 21.22448 29.948423 21.281536 29.84375 21.3125 L 29.84375 22.1875 L 30.15625 22.1875 L 30.15625 21.1875 z M 14 23.59375 L 14 25 L 15.53125 25 L 15.53125 23.59375 L 14 23.59375 z M 16.3125 23.59375 L 16.3125 25 L 17.84375 25 L 17.84375 23.59375 L 16.3125 23.59375 z M 20.21875 23.59375 L 20.21875 25 L 21.875 25 C 21.918033 24.95796 21.952319 24.913176 22 24.875 C 22.25353 24.672014 22.618041 24.541248 22.96875 24.4375 L 22.96875 23.59375 L 20.21875 23.59375 z M 25.03125 23.59375 L 25.03125 24.4375 C 25.38196 24.541246 25.74647 24.672012 26 24.875 C 26.047681 24.913176 26.081967 24.95796 26.125 25 L 27.78125 25 L 27.78125 23.59375 L 25.03125 23.59375 z M 29.84375 23.59375 L 29.84375 25 L 30.9375 25 L 30.9375 23.59375 L 29.84375 23.59375 z M 31.6875 23.59375 L 31.6875 25 L 32.46875 25 L 32.46875 23.59375 L 31.6875 23.59375 z M 33.21875 23.59375 L 33.21875 25 L 34 25 L 34 23.59375 L 33.21875 23.59375 z " transform="scale(.28222)"/>
</g>
<path style="fill:#2d2d2d" d="M 23.34375 15 L 23.34375 24.6875 C 22.461252 24.856527 21.8125 25.351945 21.8125 25.9375 C 21.8125 26.523056 22.461252 27.018473 23.34375 27.1875 L 23.34375 29 L 24.65625 29 L 24.65625 27.1875 C 25.538748 27.018473 26.1875 26.523056 26.1875 25.9375 C 26.1875 25.351945 25.538748 24.856527 24.65625 24.6875 L 24.65625 15 L 23.34375 15 z M 18.53125 15.875 L 18.53125 18.5625 C 17.648752 18.731527 17 19.226945 17 19.8125 C 17 20.398056 17.648752 20.893473 18.53125 21.0625 L 18.53125 28.125 L 19.84375 28.125 L 19.84375 21.0625 C 20.726248 20.893473 21.375 20.398056 21.375 19.8125 C 21.375 19.226945 20.726248 18.731527 19.84375 18.5625 L 19.84375 15.875 L 18.53125 15.875 z M 28.15625 15.875 L 28.15625 18.5625 C 27.273752 18.731527 26.625 19.226945 26.625 19.8125 C 26.625 20.398056 27.273752 20.893473 28.15625 21.0625 L 28.15625 28.125 L 29.46875 28.125 L 29.46875 21.0625 C 30.351248 20.893473 31 20.398056 31 19.8125 C 31 19.226945 30.351248 18.731527 29.46875 18.5625 L 29.46875 15.875 L 28.15625 15.875 z " transform="scale(.28222)"/>
</svg>

<svg viewBox="0 0 48 48"><defs><linearGradient id="1" gradientUnits="userSpaceOnUse" y1="15" x2="0" y2="11" gradientTransform="matrix(15.333333,0,0,11.5,414.99999,-125.5)"><stop/><stop offset="1" stop-opacity="0"/></linearGradient><clipPath id="clipPath-551004389"><g transform="translate(0,-1004.3622)"><path d="m -24 13 c 0 1.105 -0.672 2 -1.5 2 -0.828 0 -1.5 -0.895 -1.5 -2 0 -1.105 0.672 -2 1.5 -2 0.828 0 1.5 0.895 1.5 2 z" transform="matrix(15.333333,0,0,11.5,414.99999,878.8622)" fill="#1890d0"/></g></clipPath><clipPath id="clipPath-561478978"><g transform="translate(0,-1004.3622)"><path d="m -24 13 c 0 1.105 -0.672 2 -1.5 2 -0.828 0 -1.5 -0.895 -1.5 -2 0 -1.105 0.672 -2 1.5 -2 0.828 0 1.5 0.895 1.5 2 z" transform="matrix(15.333333,0,0,11.5,414.99999,878.8622)" fill="#1890d0"/></g></clipPath></defs><g><g transform="translate(0,-1004.3622)"><path d="m 25 1006.36 c -12.703 0 -23 10.298 -23 23 0 6.367 2.601 12.12 6.781 16.281 4.085 3.712 9.514 5.969 15.469 5.969 12.703 0 23 -10.297 23 -23 0 -5.954 -2.256 -11.384 -5.969 -15.469 -4.165 -4.181 -9.914 -6.781 -16.281 -6.781 z m 16.281 6.781 c 3.854 4.113 6.219 9.637 6.219 15.719 0 12.703 -10.297 23 -23 23 -6.081 0 -11.606 -2.364 -15.719 -6.219 4.16 4.144 9.883 6.719 16.219 6.719 12.703 0 23 -10.297 23 -23 0 -6.335 -2.575 -12.06 -6.719 -16.219 z" opacity="0.05"/><path d="m 41.28 1013.14 c 3.712 4.085 5.969 9.514 5.969 15.469 0 12.703 -10.297 23 -23 23 -5.954 0 -11.384 -2.256 -15.469 -5.969 4.113 3.854 9.637 6.219 15.719 6.219 12.703 0 23 -10.297 23 -23 0 -6.081 -2.364 -11.606 -6.219 -15.719 z" opacity="0.1"/><path transform="matrix(15.333333,0,0,11.5,415.24999,879.11222)" d="m -24 13 a 1.5 2 0 1 1 -3 0 1.5 2 0 1 1 3 0 z" opacity="0.2"/></g></g><g><g transform="translate(0,-1004.3622)"><path d="m -24 13 c 0 1.105 -0.672 2 -1.5 2 -0.828 0 -1.5 -0.895 -1.5 -2 0 -1.105 0.672 -2 1.5 -2 0.828 0 1.5 0.895 1.5 2 z" transform="matrix(15.333333,0,0,11.5,414.99999,878.8622)" fill="#dbdbdb"/></g></g><g><path d="m 47 24 c 0 12.703 -10.297 23 -23 23 -12.703 0 -23 -10.297 -23 -23 0 -12.703 10.297 -23 23 -23 12.703 0 23 10.297 23 23 z" opacity="0.15" fill="url(#1)"/></g><g><g clip-path="url(#clipPath-551004389)"><g transform="translate(0,1)"><g opacity="0.1"><!-- color: #dbdbdb --><g><path d="m 11.875 12 c -0.477 0.055 -0.875 0.512 -0.875 1 l 0 17.789 c 0 0.523 0.461 0.996 0.973 0.996 l 8.773 0 l 0 1.781 l 6.5 0 l 0 -1.781 l 8.773 0 c 0.508 0 0.973 -0.473 0.973 -0.996 l 0 -17.789 c 0 -0.523 -0.465 -1 -0.973 -1 m -22.859 1.559 c 0.039 -0.004 0.082 -0.004 0.121 0 l 21.516 0 c 0.344 0 0.648 0.32 0.648 0.668 l 0 15.328 c 0 0.348 -0.305 0.668 -0.648 0.668 l -21.516 0 c -0.34 0 -0.648 -0.32 -0.648 -0.668 l 0 -15.328 c -0.008 -0.313 0.23 -0.609 0.527 -0.668 m 2.824 20.813 l 0 1.629 l 16.25 0 l 0 -1.629 m -16.25 0" fill="#000" stroke="none" fill-rule="nonzero" fill-opacity="1"/><path d="m 14 18 l 0 1.406 l 1.531 0 l 0 -1.406 m 0.781 0 l 0 1.406 l 0.375 0 c 0.094 -0.258 0.277 -0.477 0.5 -0.656 c 0.18 -0.141 0.414 -0.227 0.656 -0.313 l 0 -0.438 m 3.094 0 l 0 0.594 c 0.09 0.047 0.176 0.098 0.25 0.156 c 0.223 0.18 0.41 0.398 0.5 0.656 l 0.781 0 l 0 -1.406 m 3.063 0 l 0 1.406 l 0.781 0 c 0.094 -0.258 0.277 -0.477 0.5 -0.656 c 0.074 -0.059 0.16 -0.109 0.25 -0.156 l 0 -0.594 m 3.094 0 l 0 0.438 c 0.246 0.086 0.477 0.172 0.656 0.313 c 0.336 0.27 0.563 0.633 0.563 1.063 c 0 0.371 -0.18 0.688 -0.438 0.938 l 0 1.441 l 1.531 0 l 0 -4.191 m 0.75 0 l 0 1.406 l 0.781 0 l 0 -1.406 m -20 2.813 l 0 1.375 l 2.313 0 l 0 -1.375 m 0.75 0 l 0 1.375 l 1.094 0 l 0 -0.875 c -0.348 -0.105 -0.715 -0.234 -0.969 -0.438 c -0.023 -0.02 -0.039 -0.043 -0.063 -0.063 m 4.563 0 l 0 1.375 l 1.281 0 l 0 -1.375 m 2.063 0 l 0 1.375 l 0.5 0 l 0 -1.375 m 0.781 0 l 0 1.375 l 1.469 0 l 0 -0.875 c -0.348 -0.105 -0.715 -0.234 -0.969 -0.438 c -0.023 -0.02 -0.039 -0.043 -0.063 -0.063 m 6.469 0 l 0 1.375 l 0.781 0 l 0 -1.375 m -13.06 0.219 c -0.215 0.117 -0.469 0.207 -0.719 0.281 l 0 0.875 l 0.719 0 m 9.219 -1 c -0.102 0.039 -0.207 0.094 -0.313 0.125 l 0 0.875 l 0.313 0 m -16.16 1.406 l 0 1.406 l 1.531 0 l 0 -1.406 m 0.785 0 l 0 1.406 l 1.531 0 l 0 -1.406 m 2.375 0 l 0 1.406 l 1.652 0 c 0.043 -0.043 0.078 -0.086 0.125 -0.125 c 0.254 -0.203 0.621 -0.336 0.973 -0.438 l 0 -0.844 m 2.063 0 l 0 0.844 c 0.348 0.105 0.715 0.234 0.969 0.438 c 0.047 0.039 0.082 0.082 0.125 0.125 l 1.656 0 l 0 -1.406 m 2.063 0 l 0 1.406 l 1.094 0 l 0 -1.406 m 0.75 0 l 0 1.406 l 0.781 0 l 0 -1.406 m 0.75 0 l 0 1.406 l 0.781 0 l 0 -1.406 m -0.781 0" fill="#000" stroke="none" fill-rule="nonzero" fill-opacity="1"/><path d="m 23.344 15 l 0 9.688 c -0.883 0.168 -1.531 0.664 -1.531 1.25 c 0 0.586 0.648 1.082 1.531 1.25 l 0 1.813 l 1.313 0 l 0 -1.813 c 0.883 -0.168 1.531 -0.664 1.531 -1.25 c 0 -0.586 -0.648 -1.082 -1.531 -1.25 l 0 -9.688 m -6.125 0.875 l 0 2.688 c -0.883 0.168 -1.531 0.664 -1.531 1.25 c 0 0.586 0.648 1.082 1.531 1.25 l 0 7.06 l 1.313 0 l 0 -7.06 c 0.883 -0.168 1.531 -0.664 1.531 -1.25 c 0 -0.586 -0.648 -1.082 -1.531 -1.25 l 0 -2.688 m 8.313 0 l 0 2.688 c -0.883 0.168 -1.531 0.664 -1.531 1.25 c 0 0.586 0.648 1.082 1.531 1.25 l 0 7.06 l 1.313 0 l 0 -7.06 c 0.883 -0.168 1.531 -0.664 1.531 -1.25 c 0 -0.586 -0.648 -1.082 -1.531 -1.25 l 0 -2.688 m -1.313 0" fill="#000" stroke="none" fill-rule="nonzero" fill-opacity="1"/></g></g></g></g></g><g><g clip-path="url(#clipPath-561478978)"><!-- color: #dbdbdb --><g><path d="m 11.875 12 c -0.477 0.055 -0.875 0.512 -0.875 1 l 0 17.789 c 0 0.523 0.461 0.996 0.973 0.996 l 8.773 0 l 0 1.781 l 6.5 0 l 0 -1.781 l 8.773 0 c 0.508 0 0.973 -0.473 0.973 -0.996 l 0 -17.789 c 0 -0.523 -0.465 -1 -0.973 -1 m -22.859 1.559 c 0.039 -0.004 0.082 -0.004 0.121 0 l 21.516 0 c 0.344 0 0.648 0.32 0.648 0.668 l 0 15.328 c 0 0.348 -0.305 0.668 -0.648 0.668 l -21.516 0 c -0.34 0 -0.648 -0.32 -0.648 -0.668 l 0 -15.328 c -0.008 -0.313 0.23 -0.609 0.527 -0.668 m 2.824 20.813 l 0 1.629 l 16.25 0 l 0 -1.629 m -16.25 0" fill="#2d2d2d" stroke="none" fill-rule="nonzero" fill-opacity="1"/><path d="m 14 18 l 0 1.406 l 1.531 0 l 0 -1.406 m 0.781 0 l 0 1.406 l 0.375 0 c 0.094 -0.258 0.277 -0.477 0.5 -0.656 c 0.18 -0.141 0.414 -0.227 0.656 -0.313 l 0 -0.438 m 3.094 0 l 0 0.594 c 0.09 0.047 0.176 0.098 0.25 0.156 c 0.223 0.18 0.41 0.398 0.5 0.656 l 0.781 0 l 0 -1.406 m 3.063 0 l 0 1.406 l 0.781 0 c 0.094 -0.258 0.277 -0.477 0.5 -0.656 c 0.074 -0.059 0.16 -0.109 0.25 -0.156 l 0 -0.594 m 3.094 0 l 0 0.438 c 0.246 0.086 0.477 0.172 0.656 0.313 c 0.336 0.27 0.563 0.633 0.563 1.063 c 0 0.371 -0.18 0.688 -0.438 0.938 l 0 1.441 l 1.531 0 l 0 -4.191 m 0.75 0 l 0 1.406 l 0.781 0 l 0 -1.406 m -20 2.813 l 0 1.375 l 2.313 0 l 0 -1.375 m 0.75 0 l 0 1.375 l 1.094 0 l 0 -0.875 c -0.348 -0.105 -0.715 -0.234 -0.969 -0.438 c -0.023 -0.02 -0.039 -0.043 -0.063 -0.063 m 4.563 0 l 0 1.375 l 1.281 0 l 0 -1.375 m 2.063 0 l 0 1.375 l 0.5 0 l 0 -1.375 m 0.781 0 l 0 1.375 l 1.469 0 l 0 -0.875 c -0.348 -0.105 -0.715 -0.234 -0.969 -0.438 c -0.023 -0.02 -0.039 -0.043 -0.063 -0.063 m 6.469 0 l 0 1.375 l 0.781 0 l 0 -1.375 m -13.06 0.219 c -0.215 0.117 -0.469 0.207 -0.719 0.281 l 0 0.875 l 0.719 0 m 9.219 -1 c -0.102 0.039 -0.207 0.094 -0.313 0.125 l 0 0.875 l 0.313 0 m -16.16 1.406 l 0 1.406 l 1.531 0 l 0 -1.406 m 0.785 0 l 0 1.406 l 1.531 0 l 0 -1.406 m 2.375 0 l 0 1.406 l 1.652 0 c 0.043 -0.043 0.078 -0.086 0.125 -0.125 c 0.254 -0.203 0.621 -0.336 0.973 -0.438 l 0 -0.844 m 2.063 0 l 0 0.844 c 0.348 0.105 0.715 0.234 0.969 0.438 c 0.047 0.039 0.082 0.082 0.125 0.125 l 1.656 0 l 0 -1.406 m 2.063 0 l 0 1.406 l 1.094 0 l 0 -1.406 m 0.75 0 l 0 1.406 l 0.781 0 l 0 -1.406 m 0.75 0 l 0 1.406 l 0.781 0 l 0 -1.406 m -0.781 0" fill="#d24736" stroke="none" fill-rule="nonzero" fill-opacity="1"/><path d="m 23.344 15 l 0 9.688 c -0.883 0.168 -1.531 0.664 -1.531 1.25 c 0 0.586 0.648 1.082 1.531 1.25 l 0 1.813 l 1.313 0 l 0 -1.813 c 0.883 -0.168 1.531 -0.664 1.531 -1.25 c 0 -0.586 -0.648 -1.082 -1.531 -1.25 l 0 -9.688 m -6.125 0.875 l 0 2.688 c -0.883 0.168 -1.531 0.664 -1.531 1.25 c 0 0.586 0.648 1.082 1.531 1.25 l 0 7.06 l 1.313 0 l 0 -7.06 c 0.883 -0.168 1.531 -0.664 1.531 -1.25 c 0 -0.586 -0.648 -1.082 -1.531 -1.25 l 0 -2.688 m 8.313 0 l 0 2.688 c -0.883 0.168 -1.531 0.664 -1.531 1.25 c 0 0.586 0.648 1.082 1.531 1.25 l 0 7.06 l 1.313 0 l 0 -7.06 c 0.883 -0.168 1.531 -0.664 1.531 -1.25 c 0 -0.586 -0.648 -1.082 -1.531 -1.25 l 0 -2.688 m -1.313 0" fill="#2d2d2d" stroke="none" fill-rule="nonzero" fill-opacity="1"/></g></g></g><g><path d="m 40.03 7.531 c 3.712 4.084 5.969 9.514 5.969 15.469 0 12.703 -10.297 23 -23 23 c -5.954 0 -11.384 -2.256 -15.469 -5.969 4.178 4.291 10.01 6.969 16.469 6.969 c 12.703 0 23 -10.298 23 -23 0 -6.462 -2.677 -12.291 -6.969 -16.469 z" opacity="0.1"/></g></svg>
